img/manages-icon1.svg

<svg width="94" height="80" viewBox="0 0 94 80" fill="none" xmlns="http://www.w3.org/2000/svg">
<g clip-path="url(#clip0)">
<path d="M30.6257 77C21.7794 77 14.584 69.8017 14.584 60.9583C14.584 56.1925 16.7511 51.6221 20.4173 48.5858V17.2083C20.4173 11.5792 24.9965 7 30.6257 7C36.2548 7 40.834 11.5792 40.834 17.2083V48.5858C44.5002 51.6221 46.6673 56.1925 46.6673 60.9583C46.6673 69.8017 39.4719 77 30.6257 77ZM30.6257 9.91667C26.6065 9.91667 23.334 13.1892 23.334 17.2083V49.2917C23.334 49.7496 23.1182 50.1813 22.7536 50.4554C19.4636 52.9317 17.5007 56.8575 17.5007 60.9583C17.5007 68.1946 23.3894 74.0833 30.6257 74.0833C37.8619 74.0833 43.7507 68.1946 43.7507 60.9583C43.7507 56.8575 41.7878 52.9317 38.4977 50.4554C38.1332 50.1813 37.9173 49.7496 37.9173 49.2917V17.2083C37.9173 13.1892 34.6448 9.91667 30.6257 9.91667Z" fill="#36A2F4"/>
<path d="M30.6256 68.2501C26.6065 68.2501 23.334 64.9805 23.334 60.9584C23.334 56.9363 26.6065 53.6667 30.6256 53.6667C34.6448 53.6667 37.9173 56.9363 37.9173 60.9584C37.9173 64.9805 34.6448 68.2501 30.6256 68.2501ZM30.6256 56.5834C28.2136 56.5834 26.2506 58.5463 26.2506 60.9584C26.2506 63.3705 28.2136 65.3334 30.6256 65.3334C33.0377 65.3334 35.0006 63.3705 35.0006 60.9584C35.0006 58.5463 33.0377 56.5834 30.6256 56.5834Z" fill="#36A2F4"/>
<path d="M30.6244 56.5832C29.8194 56.5832 29.166 55.9299 29.166 55.1249V23.0416C29.166 22.2366 29.8194 21.5833 30.6244 21.5833C31.4294 21.5833 32.0827 22.2366 32.0827 23.0416V55.1249C32.0827 55.9299 31.4294 56.5832 30.6244 56.5832Z" fill="#36A2F4"/>
<path d="M53.9577 18.6667H48.1243C47.3193 18.6667 46.666 18.0133 46.666 17.2083C46.666 16.4033 47.3193 15.75 48.1243 15.75H53.9577C54.7627 15.75 55.416 16.4033 55.416 17.2083C55.416 18.0133 54.7627 18.6667 53.9577 18.6667Z" fill="#36A2F4"/>
<path d="M53.9577 30.3334H48.1243C47.3193 30.3334 46.666 29.6801 46.666 28.8751C46.666 28.0701 47.3193 27.4167 48.1243 27.4167H53.9577C54.7627 27.4167 55.416 28.0701 55.416 28.8751C55.416 29.6801 54.7627 30.3334 53.9577 30.3334Z" fill="#36A2F4"/>
<path d="M53.9577 41.9999H48.1243C47.3193 41.9999 46.666 41.3466 46.666 40.5416C46.666 39.7366 47.3193 39.0833 48.1243 39.0833H53.9577C54.7627 39.0833 55.416 39.7366 55.416 40.5416C55.416 41.3466 54.7627 41.9999 53.9577 41.9999Z" fill="#36A2F4"/>
</g>
<defs>
<clipPath id="clip0">
<rect width="70" height="70" fill="white" transform="translate(0 7)"/>
</clipPath>
</defs>
</svg>

<svg width="94" height="80" fill="none" xmlns="http://www.w3.org/2000/svg"><g clip-path="url(#clip0)" fill="#36A2F4"><path d="M30.626 77c-8.847 0-16.042-7.198-16.042-16.042 0-4.765 2.167-9.336 5.833-12.372V17.208C20.417 11.58 24.997 7 30.626 7s10.208 4.58 10.208 10.208v31.378c3.666 3.036 5.833 7.607 5.833 12.372C46.667 69.802 39.472 77 30.626 77zm0-67.083c-4.02 0-7.292 3.272-7.292 7.291v32.084c0 .458-.216.89-.58 1.163-3.29 2.477-5.253 6.403-5.253 10.503 0 7.237 5.888 13.125 13.125 13.125 7.236 0 13.125-5.888 13.125-13.125 0-4.1-1.963-8.026-5.253-10.503a1.457 1.457 0 01-.58-1.163V17.208c0-4.019-3.273-7.291-7.292-7.291z"/><path d="M30.626 68.25c-4.02 0-7.292-3.27-7.292-7.292s3.273-7.291 7.292-7.291 7.291 3.27 7.291 7.291c0 4.023-3.272 7.292-7.291 7.292zm0-11.667a4.38 4.38 0 00-4.375 4.375 4.38 4.38 0 004.375 4.375A4.38 4.38 0 0035 60.958a4.38 4.38 0 00-4.375-4.375z"/><path d="M30.624 56.583a1.459 1.459 0 01-1.458-1.458V23.042a1.459 1.459 0 012.917 0v32.083c0 .805-.654 1.458-1.459 1.458zM53.958 18.667h-5.834a1.459 1.459 0 010-2.917h5.834a1.459 1.459 0 010 2.917zM53.958 30.333h-5.834a1.459 1.459 0 010-2.916h5.834a1.459 1.459 0 010 2.916zM53.958 42h-5.834a1.459 1.459 0 010-2.917h5.834a1.459 1.459 0 010 2.917z"/></g><defs><clipPath id="clip0"><path fill="#fff" transform="translate(0 7)" d="M0 0h70v70H0z"/></clipPath></defs></svg>
